X: 35757
T: Sallbacher Masur
R: mazurka
M: 3/4
K: Dmajor
G2 Bc d2|g2 Bc d2|cd e2 dc|B2 g2 d2|
G2 Bc d2|g2 Bc d2|cB A2 d2|G2 G2:|
AF A2 A2|fe d2 d2|cB A2 G2|FG A2 A2|
AF A2 A2|fe d2 d2|cB Ag fe|d2 d2:|
~|[B,2G2] [GB]>[Ac] [B2d2]|[B2g2] [GB]>[Ac] [B2d2]|~|[B,2G2] [B,2G2]:|
~|[AF]>[AF] [A2F2] [A2F2]|[Af]>[Ge] [F2d2] [F2d2]|~|[F2d2] [F2d2]:|

